X:1
T:Title
%%score ( 1 2 3 ) ( 4 5 )
L:1/8
Q:1/4=105
M:4/4
K:F
V:1 treble nm="Grand Piano, Soprano"
V:2 treble 
V:3 treble 
V:4 bass nm="Choir Pad, Bass"
V:5 bass 
V:1
 [A,CF]4 .[F,A,C]2 [A,CF]>[CEG] | [CFA]4 .[A,CF]2 [FA]>[GB] | z2 z c z4 | [FA]8 | %4
w: By~Anonymous,~1889 * * *||||
 [CEGc]4 .[CFA]2 [CF]>[CFA] | [CEGc]4 .[CFA]2 [CF]>[CFA] | [CEG]2 [EGc]>[FGd] [EGc]2 [DFG=B]2 | %7
w: |||
 .[CEGc]2 C>C .C2 .C2 | [DBd]4 [CAc]2 A>F | [CAc]2 [CGB]>C [CFA]2 z2 | %10
w: |||
 [DBd]3 [CAc] [DBd][CAc][CGB][CFA] | [DGB]2 [DFA]2 [EG]2 z2 | [F,F]3 [A,C] [B,D][CE][DF][EG] | %13
w: |||
 [FA][EG][FA][GB] .[Ac]2 .[DFBd]2 | z2 FF z4 | [A,CF]8 |] %16
w: |||
V:2
 x8 | x8 | [FAc]2 .c>e [FBd]3 [FAc] | c4 .[A,C]4 | x8 | x8 | x8 | x8 | x8 | x8 | x8 | x8 | x8 | %13
 x8 | [A,CF]2 [A,C]->[A,CA] [B,CEG]3- [B,CEG]/[A,CF]/ | x8 |] %16
V:3
 x8 | x8 | z2 [FA]2 z4 | x8 | x8 | x8 | x8 | x8 | x8 | x8 | x8 | x8 | x8 | x8 | x8 | x8 |] %16
V:4
 [F,,C,F,]4 .F,,2 [A,,F,]>[C,G,] | [F,A,]4 .F,,2 [F,A,]>[F,G,B,] | %2
 [F,A,C]2 [F,A,C]2 [F,B,D]3 [F,A,C] | F,8 | [C,G,]4 .[F,A,]2 A,>[F,A,] | %5
 [C,G,]4 .[F,A,]2 A,>[F,A,] | G,2 G,>G, [G,,G,]2 [G,,G,]2 | .[C,,C,]2 C,>C, .C,2 .C,2 | %8
 [C,E,]4 [C,F,]2 A,>F, | [C,D,F,]2 [C,E,G,]2 [C,F,A,]2 z2 | %10
 [C,E,]3 [C,F,] [C,E,][C,F,][C,G,][C,A,] | [C,B,]2 [C,=B,]2 [C,C]2 z2 | %12
 [F,,,F,,]3 [A,,C,] [B,,D,][C,E,][D,F,][E,G,] | [F,A,][E,G,][F,A,][G,B,] .[A,C]2 .[B,,,B,,]2 | %14
 [C,,C,]2 [C,,C,]2 [C,,C,]3- [C,,C,]/[F,,,F,,]/ | [F,,,F,,]8 |] %16
V:5
 x8 | x8 | x8 | [A,C]4 .[F,,C,]4 | x8 | x8 | x8 | x8 | x8 | x8 | x8 | x8 | x8 | x8 | x8 | x8 |] %16

